public/assets/images/brand/14.svg

<svg width="70" height="29" viewBox="0 0 70 29" fill="none" xmlns="http://www.w3.org/2000/svg">
<g clip-path="url(#clip0_1509_29011)">
<path fill-rule="evenodd" clip-rule="evenodd" d="M70 14.9837C70 10.0277 67.5888 6.11719 62.9805 6.11719C58.3527 6.11719 55.5527 10.0277 55.5527 14.945C55.5527 20.7721 58.8583 23.7147 63.6027 23.7147C65.9166 23.7147 67.6666 23.192 68.9888 22.4563V18.5845C67.6666 19.2427 66.15 19.6492 64.225 19.6492C62.3388 19.6492 60.6666 18.991 60.4527 16.7066H69.9611C69.9611 16.455 70 15.4483 70 14.9837ZM60.3944 13.1446C60.3944 10.957 61.7361 10.0471 62.9611 10.0471C64.1472 10.0471 65.4111 10.957 65.4111 13.1446H60.3944Z" fill="#BCBFDB"/>
<path fill-rule="evenodd" clip-rule="evenodd" d="M70 14.9837C70 10.0277 67.5888 6.11719 62.9805 6.11719C58.3527 6.11719 55.5527 10.0277 55.5527 14.945C55.5527 20.7721 58.8583 23.7147 63.6027 23.7147C65.9166 23.7147 67.6666 23.192 68.9888 22.4563V18.5845C67.6666 19.2427 66.15 19.6492 64.225 19.6492C62.3388 19.6492 60.6666 18.991 60.4527 16.7066H69.9611C69.9611 16.455 70 15.4483 70 14.9837ZM60.3944 13.1446C60.3944 10.957 61.7361 10.0471 62.9611 10.0471C64.1472 10.0471 65.4111 10.957 65.4111 13.1446H60.3944Z" fill="black" fill-opacity="0.4"/>
<path fill-rule="evenodd" clip-rule="evenodd" d="M48.0467 6.11719C46.1412 6.11719 44.9162 7.00771 44.2356 7.6272L43.9829 6.42693H39.7051V28.9997L44.5662 27.9737L44.5856 22.495C45.2856 22.9984 46.3162 23.7147 48.0273 23.7147C51.5079 23.7147 54.6773 20.9269 54.6773 14.7901C54.6579 9.17593 51.4495 6.11719 48.0467 6.11719ZM46.8801 19.4556C45.7329 19.4556 45.0523 19.0491 44.5856 18.5458L44.5662 11.3635C45.0717 10.8021 45.7717 10.4149 46.8801 10.4149C48.6495 10.4149 49.8745 12.3896 49.8745 14.9256C49.8745 17.5197 48.669 19.4556 46.8801 19.4556Z" fill="#BCBFDB"/>
<path fill-rule="evenodd" clip-rule="evenodd" d="M48.0467 6.11719C46.1412 6.11719 44.9162 7.00771 44.2356 7.6272L43.9829 6.42693H39.7051V28.9997L44.5662 27.9737L44.5856 22.495C45.2856 22.9984 46.3162 23.7147 48.0273 23.7147C51.5079 23.7147 54.6773 20.9269 54.6773 14.7901C54.6579 9.17593 51.4495 6.11719 48.0467 6.11719ZM46.8801 19.4556C45.7329 19.4556 45.0523 19.0491 44.5856 18.5458L44.5662 11.3635C45.0717 10.8021 45.7717 10.4149 46.8801 10.4149C48.6495 10.4149 49.8745 12.3896 49.8745 14.9256C49.8745 17.5197 48.669 19.4556 46.8801 19.4556Z" fill="black" fill-opacity="0.4"/>
<path fill-rule="evenodd" clip-rule="evenodd" d="M33.0167 4.9753L37.8973 3.92991V0L33.0167 1.02603V4.9753Z" fill="#BCBFDB"/>
<path fill-rule="evenodd" clip-rule="evenodd" d="M33.0167 4.9753L37.8973 3.92991V0L33.0167 1.02603V4.9753Z" fill="black" fill-opacity="0.4"/>
<path d="M37.8972 6.44531H33.0166V23.3846H37.8972V6.44531Z" fill="#BCBFDB"/>
<path d="M37.8972 6.44531H33.0166V23.3846H37.8972V6.44531Z" fill="black" fill-opacity="0.4"/>
<path fill-rule="evenodd" clip-rule="evenodd" d="M27.7865 7.87878L27.4754 6.4462H23.2754V23.3855H28.1365V11.9055C29.2837 10.4148 31.2282 10.6859 31.8309 10.8988V6.4462C31.2087 6.21389 28.9337 5.78799 27.7865 7.87878Z" fill="#BCBFDB"/>
<path fill-rule="evenodd" clip-rule="evenodd" d="M27.7865 7.87878L27.4754 6.4462H23.2754V23.3855H28.1365V11.9055C29.2837 10.4148 31.2282 10.6859 31.8309 10.8988V6.4462C31.2087 6.21389 28.9337 5.78799 27.7865 7.87878Z" fill="black" fill-opacity="0.4"/>
<path fill-rule="evenodd" clip-rule="evenodd" d="M18.0637 2.24609L13.3192 3.25277L13.2998 18.7594C13.2998 21.6246 15.4581 23.7347 18.3359 23.7347C19.9304 23.7347 21.097 23.4444 21.7387 23.0959V19.166C21.1165 19.4177 18.0442 20.3082 18.0442 17.443V10.5705H21.7387V6.44703H18.0442L18.0637 2.24609Z" fill="#BCBFDB"/>
<path fill-rule="evenodd" clip-rule="evenodd" d="M18.0637 2.24609L13.3192 3.25277L13.2998 18.7594C13.2998 21.6246 15.4581 23.7347 18.3359 23.7347C19.9304 23.7347 21.097 23.4444 21.7387 23.0959V19.166C21.1165 19.4177 18.0442 20.3082 18.0442 17.443V10.5705H21.7387V6.44703H18.0442L18.0637 2.24609Z" fill="black" fill-opacity="0.4"/>
<path fill-rule="evenodd" clip-rule="evenodd" d="M4.91944 11.3635C4.91944 10.6085 5.54167 10.3181 6.57222 10.3181C8.05 10.3181 9.91667 10.7634 11.3944 11.5571V7.00771C9.78056 6.36886 8.18611 6.11719 6.57222 6.11719C2.625 6.11719 0 8.16926 0 11.5958C0 16.939 7.38889 16.0678 7.38889 18.3715C7.38889 19.262 6.61111 19.5524 5.52222 19.5524C3.90833 19.5524 1.84722 18.8942 0.213889 18.0037V22.6112C2.02222 23.3855 3.85 23.7147 5.52222 23.7147C9.56667 23.7147 12.3472 21.7207 12.3472 18.2554C12.3278 12.5057 4.91944 13.5317 4.91944 11.3635Z" fill="#BCBFDB"/>
<path fill-rule="evenodd" clip-rule="evenodd" d="M4.91944 11.3635C4.91944 10.6085 5.54167 10.3181 6.57222 10.3181C8.05 10.3181 9.91667 10.7634 11.3944 11.5571V7.00771C9.78056 6.36886 8.18611 6.11719 6.57222 6.11719C2.625 6.11719 0 8.16926 0 11.5958C0 16.939 7.38889 16.0678 7.38889 18.3715C7.38889 19.262 6.61111 19.5524 5.52222 19.5524C3.90833 19.5524 1.84722 18.8942 0.213889 18.0037V22.6112C2.02222 23.3855 3.85 23.7147 5.52222 23.7147C9.56667 23.7147 12.3472 21.7207 12.3472 18.2554C12.3278 12.5057 4.91944 13.5317 4.91944 11.3635Z" fill="black" fill-opacity="0.4"/>
</g>
<defs>
<clipPath id="clip0_1509_29011">
<rect width="70" height="29" fill="white"/>
</clipPath>
</defs>
</svg>

<svg xmlns="http://www.w3.org/2000/svg" width="70" height="29" fill="none" viewBox="0 0 70 29"><g clip-path="url(#a)"><path fill="#bcbfdb" fill-rule="evenodd" d="M70 14.984c0-4.956-2.411-8.867-7.02-8.867-4.627 0-7.427 3.91-7.427 8.828 0 5.827 3.305 8.77 8.05 8.77 2.314 0 4.064-.523 5.386-1.259v-3.872c-1.322.659-2.839 1.065-4.764 1.065-1.886 0-3.558-.658-3.772-2.942h9.508c0-.252.039-1.259.039-1.723m-9.606-1.84c0-2.187 1.342-3.097 2.567-3.097 1.186 0 2.45.91 2.45 3.098z" clip-rule="evenodd"/><path fill="#000" fill-opacity=".4" fill-rule="evenodd" d="M70 14.984c0-4.956-2.411-8.867-7.02-8.867-4.627 0-7.427 3.91-7.427 8.828 0 5.827 3.305 8.77 8.05 8.77 2.314 0 4.064-.523 5.386-1.259v-3.872c-1.322.659-2.839 1.065-4.764 1.065-1.886 0-3.558-.658-3.772-2.942h9.508c0-.252.039-1.259.039-1.723m-9.606-1.84c0-2.187 1.342-3.097 2.567-3.097 1.186 0 2.45.91 2.45 3.098z" clip-rule="evenodd"/><path fill="#bcbfdb" fill-rule="evenodd" d="M48.047 6.117c-1.906 0-3.13.89-3.811 1.51l-.253-1.2h-4.278V29l4.861-1.026.02-5.479c.7.503 1.73 1.22 3.441 1.22 3.48 0 6.65-2.788 6.65-8.925-.02-5.614-3.227-8.673-6.63-8.673M46.88 19.456c-1.147 0-1.828-.407-2.294-.91l-.02-7.182c.506-.562 1.206-.95 2.314-.95 1.77 0 2.994 1.976 2.994 4.512 0 2.594-1.205 4.53-2.994 4.53" clip-rule="evenodd"/><path fill="#000" fill-opacity=".4" fill-rule="evenodd" d="M48.047 6.117c-1.906 0-3.13.89-3.811 1.51l-.253-1.2h-4.278V29l4.861-1.026.02-5.479c.7.503 1.73 1.22 3.441 1.22 3.48 0 6.65-2.788 6.65-8.925-.02-5.614-3.227-8.673-6.63-8.673M46.88 19.456c-1.147 0-1.828-.407-2.294-.91l-.02-7.182c.506-.562 1.206-.95 2.314-.95 1.77 0 2.994 1.976 2.994 4.512 0 2.594-1.205 4.53-2.994 4.53" clip-rule="evenodd"/><path fill="#bcbfdb" fill-rule="evenodd" d="m33.017 4.975 4.88-1.045V0l-4.88 1.026z" clip-rule="evenodd"/><path fill="#000" fill-opacity=".4" fill-rule="evenodd" d="m33.017 4.975 4.88-1.045V0l-4.88 1.026z" clip-rule="evenodd"/><path fill="#bcbfdb" d="M37.897 6.445h-4.88v16.94h4.88z"/><path fill="#000" fill-opacity=".4" d="M37.897 6.445h-4.88v16.94h4.88z"/><path fill="#bcbfdb" fill-rule="evenodd" d="m27.787 7.879-.312-1.433h-4.2v16.94h4.862v-11.48c1.147-1.491 3.091-1.22 3.694-1.007V6.446c-.622-.232-2.897-.658-4.044 1.433" clip-rule="evenodd"/><path fill="#000" fill-opacity=".4" fill-rule="evenodd" d="m27.787 7.879-.312-1.433h-4.2v16.94h4.862v-11.48c1.147-1.491 3.091-1.22 3.694-1.007V6.446c-.622-.232-2.897-.658-4.044 1.433" clip-rule="evenodd"/><path fill="#bcbfdb" fill-rule="evenodd" d="m18.064 2.246-4.745 1.007-.02 15.506c0 2.866 2.16 4.976 5.037 4.976 1.594 0 2.761-.29 3.403-.64v-3.929c-.623.252-3.695 1.142-3.695-1.723V10.57h3.695V6.447h-3.695z" clip-rule="evenodd"/><path fill="#000" fill-opacity=".4" fill-rule="evenodd" d="m18.064 2.246-4.745 1.007-.02 15.506c0 2.866 2.16 4.976 5.037 4.976 1.594 0 2.761-.29 3.403-.64v-3.929c-.623.252-3.695 1.142-3.695-1.723V10.57h3.695V6.447h-3.695z" clip-rule="evenodd"/><path fill="#bcbfdb" fill-rule="evenodd" d="M4.92 11.364c0-.756.622-1.046 1.652-1.046 1.478 0 3.345.445 4.822 1.24v-4.55c-1.613-.64-3.208-.89-4.822-.89C2.625 6.117 0 8.168 0 11.595c0 5.343 7.389 4.472 7.389 6.776 0 .89-.778 1.18-1.867 1.18-1.614 0-3.675-.658-5.308-1.548v4.607a13.5 13.5 0 0 0 5.308 1.104c4.045 0 6.825-1.994 6.825-5.46-.02-5.75-7.428-4.723-7.428-6.891" clip-rule="evenodd"/><path fill="#000" fill-opacity=".4" fill-rule="evenodd" d="M4.92 11.364c0-.756.622-1.046 1.652-1.046 1.478 0 3.345.445 4.822 1.24v-4.55c-1.613-.64-3.208-.89-4.822-.89C2.625 6.117 0 8.168 0 11.595c0 5.343 7.389 4.472 7.389 6.776 0 .89-.778 1.18-1.867 1.18-1.614 0-3.675-.658-5.308-1.548v4.607a13.5 13.5 0 0 0 5.308 1.104c4.045 0 6.825-1.994 6.825-5.46-.02-5.75-7.428-4.723-7.428-6.891" clip-rule="evenodd"/></g><defs><clipPath id="a"><path fill="#fff" d="M0 0h70v29H0z"/></clipPath></defs></svg>
